vsi/symbol-namespace_light.svg

<svg viewBox="0 0 16 16" fill="none" xmlns="http://www.w3.org/2000/svg" height="1em" width="1em">
  <g clip-path="url(#a)">
    <path fill-rule="evenodd" clip-rule="evenodd" d="M6.00024 2.98361V2.97184V2H5.91107C5.59767 2 5.29431 2.06161 5.00152 2.18473C4.70842 2.30798 4.44967 2.48474 4.22602 2.71498C4.00336 2.94422 3.83816 3.19498 3.73306 3.46766L3.73257 3.46898C3.63406 3.7352 3.56839 4.01201 3.53557 4.29917L3.53543 4.30053C3.50702 4.5805 3.49894 4.86844 3.51108 5.16428C3.52297 5.45379 3.52891 5.74329 3.52891 6.03279C3.52891 6.23556 3.48999 6.42594 3.41225 6.60507L3.41185 6.60601C3.33712 6.78296 3.23447 6.93866 3.10341 7.07359C2.97669 7.20405 2.8249 7.31055 2.64696 7.3925C2.47084 7.46954 2.28522 7.5082 2.08942 7.5082H2.00024V7.6V8.4V8.4918H2.08942C2.2849 8.4918 2.47026 8.53238 2.64625 8.61334L2.64766 8.61396C2.82482 8.69157 2.97602 8.79762 3.10245 8.93161L3.10436 8.93352C3.23452 9.0637 3.33684 9.21871 3.41153 9.39942L3.41225 9.40108C3.49011 9.58047 3.52891 9.76883 3.52891 9.96721C3.52891 10.2567 3.52297 10.5462 3.51108 10.8357C3.49894 11.1316 3.50701 11.4215 3.5354 11.7055L3.5356 11.7072C3.56844 11.9903 3.63412 12.265 3.73256 12.531L3.73307 12.5323C3.83817 12.805 4.00336 13.0558 4.22602 13.285C4.44967 13.5153 4.70842 13.692 5.00152 13.8153C5.29431 13.9384 5.59767 14 5.91107 14H6.00024V13.2V13.0164H5.91107C5.71119 13.0164 5.52371 12.9777 5.34787 12.9008C5.17421 12.8191 5.02218 12.7126 4.89111 12.5818C4.76411 12.4469 4.66128 12.2911 4.58247 12.1137C4.50862 11.9346 4.47158 11.744 4.47158 11.541C4.47158 11.3127 4.47554 11.0885 4.48346 10.8686C4.49149 10.6411 4.49151 10.4195 4.48349 10.2039C4.47938 9.98246 4.46109 9.76883 4.42847 9.56312C4.39537 9.35024 4.33946 9.14757 4.26063 8.95536C4.18115 8.76157 4.07282 8.57746 3.9364 8.40298C3.8237 8.25881 3.68563 8.12462 3.52307 8C3.68563 7.87538 3.8237 7.74119 3.9364 7.59702C4.07282 7.42254 4.18115 7.23843 4.26063 7.04464C4.33938 6.85263 4.39537 6.65175 4.4285 6.44285C4.46107 6.2333 4.47938 6.01973 4.48349 5.80219C4.49151 5.58262 4.4915 5.36105 4.48345 5.13749C4.47554 4.9134 4.47158 4.68725 4.47158 4.45902C4.47158 4.26019 4.50857 4.07152 4.58263 3.89205C4.6616 3.71034 4.76445 3.55475 4.8911 3.42437C5.02218 3.28942 5.17485 3.18275 5.34826 3.10513C5.52404 3.02427 5.71138 2.98361 5.91107 2.98361H6.00024ZM10.0002 13.0164V13.0282V14H10.0894C10.4028 14 10.7062 13.9384 10.999 13.8153C11.2921 13.692 11.5508 13.5153 11.7745 13.285C11.9971 13.0558 12.1623 12.805 12.2674 12.5323L12.2679 12.531C12.3664 12.2648 12.4321 11.988 12.4649 11.7008L12.4651 11.6995C12.4935 11.4195 12.5015 11.1316 12.4894 10.8357C12.4775 10.5462 12.4716 10.2567 12.4716 9.96721C12.4716 9.76444 12.5105 9.57406 12.5882 9.39493L12.5886 9.39399C12.6634 9.21704 12.766 9.06134 12.8971 8.92642C13.0238 8.79595 13.1756 8.68945 13.3535 8.6075C13.5296 8.53046 13.7153 8.4918 13.9111 8.4918H14.0002V8.4V7.6V7.5082H13.9111C13.7156 7.5082 13.5302 7.46762 13.3542 7.38666L13.3528 7.38604C13.1757 7.30844 13.0245 7.20238 12.898 7.06839L12.8961 7.06648C12.766 6.9363 12.6637 6.78129 12.589 6.60058L12.5882 6.59892C12.5104 6.41953 12.4716 6.23117 12.4716 6.03279C12.4716 5.74329 12.4775 5.45379 12.4894 5.16428C12.5015 4.86842 12.4935 4.57848 12.4651 4.29454L12.4649 4.29285C12.4321 4.00971 12.3664 3.73502 12.2679 3.46897L12.2674 3.46766C12.1623 3.19499 11.9971 2.94422 11.7745 2.71498C11.5508 2.48474 11.2921 2.30798 10.999 2.18473C10.7062 2.06161 10.4028 2 10.0894 2H10.0002V2.8V2.98361H10.0894C10.2893 2.98361 10.4768 3.0223 10.6526 3.09917C10.8263 3.18092 10.9783 3.28736 11.1094 3.41823C11.2364 3.55305 11.3392 3.70889 11.418 3.88628C11.4919 4.0654 11.5289 4.25596 11.5289 4.45902C11.5289 4.68727 11.5249 4.91145 11.517 5.13142C11.509 5.35894 11.509 5.58049 11.517 5.79605C11.5211 6.01754 11.5394 6.23117 11.572 6.43688C11.6051 6.64976 11.661 6.85243 11.7399 7.04464C11.8193 7.23843 11.9277 7.42254 12.0641 7.59702C12.1768 7.74119 12.3149 7.87538 12.4774 8C12.3149 8.12462 12.1768 8.25881 12.0641 8.40298C11.9277 8.57746 11.8193 8.76157 11.7399 8.95536C11.6611 9.14737 11.6051 9.34825 11.572 9.55715C11.5394 9.7667 11.5211 9.98027 11.517 10.1978C11.509 10.4174 11.509 10.6389 11.517 10.8625C11.5249 11.0866 11.5289 11.3128 11.5289 11.541C11.5289 11.7398 11.4919 11.9285 11.4179 12.1079C11.3389 12.2897 11.236 12.4452 11.1094 12.5756C10.9783 12.7106 10.8256 12.8173 10.6522 12.8949C10.4764 12.9757 10.2891 13.0164 10.0894 13.0164H10.0002Z" fill="#424242"/>
  </g>
  <defs>
    <clipPath id="a">
      <rect width="16" height="16" fill="white" transform="translate(0.000244141)"/>
    </clipPath>
  </defs>
</svg>

<svg viewBox="0 0 16 16" fill="none" xmlns="http://www.w3.org/2000/svg" height="1em" width="1em">
  <g clip-path="url(#a)">
    <path fill-rule="evenodd" clip-rule="evenodd" d="M6 2.984V2h-.089c-.313 0-.617.062-.91.185a2.33 2.33 0 0 0-.775.53 2.23 2.23 0 0 0-.493.753v.001a3.543 3.543 0 0 0-.197.83v.002a6.08 6.08 0 0 0-.025.863c.012.29.018.58.018.869 0 .203-.039.393-.117.572v.001a1.504 1.504 0 0 1-.765.787 1.376 1.376 0 0 1-.558.115H2v.984h.09c.195 0 .38.04.556.121l.002.001c.177.078.328.184.454.318l.002.002c.13.13.233.285.308.465v.002c.078.18.117.368.117.566 0 .29-.006.58-.018.869-.012.296-.004.585.024.87v.001c.033.283.1.558.198.824v.001c.105.273.27.524.493.753.224.23.482.407.776.53.292.123.596.185.91.185H6v-.984h-.089c-.2 0-.387-.038-.563-.115a1.613 1.613 0 0 1-.457-.32 1.659 1.659 0 0 1-.309-.467c-.073-.18-.11-.37-.11-.573 0-.228.004-.453.011-.672.008-.228.009-.45 0-.665a4.639 4.639 0 0 0-.055-.64 2.682 2.682 0 0 0-.167-.609A2.283 2.283 0 0 0 3.523 8a2.283 2.283 0 0 0 .738-.955c.078-.192.134-.393.167-.602.033-.21.051-.423.055-.64.009-.22.009-.442 0-.666-.007-.224-.011-.45-.011-.678a1.47 1.47 0 0 1 .876-1.354 1.33 1.33 0 0 1 .563-.121h.09Zm4 10.032V14h.09c.313 0 .616-.062.909-.185.293-.123.552-.3.775-.53.223-.23.388-.48.493-.753v-.001c.1-.266.165-.543.198-.83v-.002c.028-.28.037-.567.024-.863-.012-.29-.017-.58-.017-.869 0-.203.039-.393.116-.572v-.001a1.504 1.504 0 0 1 .766-.787c.176-.077.361-.115.557-.115h.09v-.984h-.09c-.195 0-.38-.04-.557-.121l-.001-.001a1.378 1.378 0 0 1-.455-.318l-.002-.002a1.415 1.415 0 0 1-.307-.465v-.002a1.407 1.407 0 0 1-.117-.566c0-.29.005-.58.017-.869a6.19 6.19 0 0 0-.024-.87v-.001a3.537 3.537 0 0 0-.197-.824v-.001a2.232 2.232 0 0 0-.494-.753 2.331 2.331 0 0 0-.775-.53 2.325 2.325 0 0 0-.91-.185H10v.984h.09c.2 0 .387.038.563.115.173.082.325.188.456.32.127.134.23.29.309.467.074.18.11.37.11.573 0 .228-.003.452-.011.672-.008.228-.008.45 0 .665.004.222.022.435.055.64.033.214.089.416.168.609a2.285 2.285 0 0 0 .737.955 2.285 2.285 0 0 0-.737.955 2.689 2.689 0 0 0-.168.602c-.033.21-.05.423-.055.64-.008.22-.008.442 0 .666.008.224.012.45.012.678a1.471 1.471 0 0 1-.877 1.354 1.33 1.33 0 0 1-.563.121H10Z" fill="#424242"/>
  </g>
  <defs>
    <clipPath id="a">
      <path fill="#fff" d="M0 0h16v16H0z"/>
    </clipPath>
  </defs>
</svg>
